svg/fluentui-system-icons/ic_fluent_doctor_16_regular.svg

<svg width="16" height="16" viewBox="0 0 16 16" fill="none" xmlns="http://www.w3.org/2000/svg">
<path d="M6.5 2.76562C6.22386 2.76562 6 2.98948 6 3.26563V5.5166C6 5.79274 5.77614 6.0166 5.5 6.0166H3.5C3.22386 6.0166 3 6.24046 3 6.5166V9.50098C3 9.77712 3.22386 10.001 3.5 10.001H5.5C5.77614 10.001 6 10.2248 6 10.501V12.501C6 12.7771 6.22386 13.001 6.5 13.001H9.5C9.77614 13.001 10 12.7771 10 12.501V10.501C10 10.2248 10.2239 10.001 10.5 10.001H12.5C12.7761 10.001 13 9.77712 13 9.50098V6.50098C13 6.22483 12.7761 6.00098 12.5 6.00098H10.5C10.2239 6.00098 10 5.77712 10 5.50098V3.26562C10 2.98948 9.77614 2.76562 9.5 2.76562H6.5ZM5 3.26563C5 2.4372 5.67157 1.76562 6.5 1.76562H9.5C10.3284 1.76562 11 2.4372 11 3.26562V5.00098H12.5C13.3284 5.00098 14 5.67255 14 6.50098V9.50098C14 10.3294 13.3284 11.001 12.5 11.001H11V12.501C11 13.3294 10.3284 14.001 9.5 14.001H6.5C5.67157 14.001 5 13.3294 5 12.501V11.001H3.5C2.67157 11.001 2 10.3294 2 9.50098V6.5166C2 5.68817 2.67157 5.0166 3.5 5.0166H5V3.26563Z" fill="#212121"/>
</svg>

<svg xmlns="http://www.w3.org/2000/svg" width="16" height="16"><path d="M6.5 2.766a.5.5 0 0 0-.5.5v2.25a.5.5 0 0 1-.5.5h-2a.5.5 0 0 0-.5.5v2.985a.5.5 0 0 0 .5.5h2a.5.5 0 0 1 .5.5v2a.5.5 0 0 0 .5.5h3a.5.5 0 0 0 .5-.5v-2a.5.5 0 0 1 .5-.5h2a.5.5 0 0 0 .5-.5v-3a.5.5 0 0 0-.5-.5h-2a.5.5 0 0 1-.5-.5V3.266a.5.5 0 0 0-.5-.5h-3Zm-1.5.5a1.5 1.5 0 0 1 1.5-1.5h3a1.5 1.5 0 0 1 1.5 1.5V5h1.5A1.5 1.5 0 0 1 14 6.5v3a1.5 1.5 0 0 1-1.5 1.5H11v1.5A1.5 1.5 0 0 1 9.5 14h-3A1.5 1.5 0 0 1 5 12.5V11H3.5A1.5 1.5 0 0 1 2 9.5V6.517a1.5 1.5 0 0 1 1.5-1.5H5V3.266Z"/></svg>
